X:1
T:Life by de Galley Fire. Roose.0779, A
T:Life by de Galley Fire. Roose.0779, A
T:Life on the Ocean Wave,aka. Roose.0779, A
T:Henry Russel
C:Henry Russel
L:1/8
Q:3/8=100
M:6/8
K:G
V:1 treble 
V:1
 D | DGG G2 A | B3- BGA | B2 B c2 B | A3- A2 D | DDF A2 B | c3- cde | e2 d cBA | G3- G2 D!fine! | %9
 DG>G G2 A | B3- BGA | BBB c2 B | A3- A2 D | DDF A2 B | c3- cde | e2 d cBA | G3- G2 || G/F/ | %18
 E2 F G2 A | B3- BGF | E2 F G2 A | B3- BBB | BBB B2 B | B3- B2 B | B2 B B2 B | %25
 !fermata!c3{!fermata!A!fermata!^G!fermata!A} !fermata!D2!D.C.! |] %26

